svg/white/dcn.svg

<svg xmlns="http://www.w3.org/2000/svg" width="32" height="32" viewBox="0 0 32 32">
  <path fill="#FFF" fill-rule="evenodd" d="M25.2122389,24.9208 C22.3241732,20.1971077 20.1444033,15.156844 18.5949896,9.84387692 C17.7444033,6.92712967 16.951154,3.9935033 16.1311649,1.06778901 C16.0892581,0.918602198 16.0387595,0.771789011 15.9013786,0.613371429 C15.7730279,1.01662418 15.6344197,1.41697582 15.517817,1.82356923 C14.2108142,6.38400879 12.8402499,10.9255473 11.126891,15.3512176 C9.51172384,19.5230857 7.02413184,23.8446452 4.63623047,27.6179199 C4.61577385,27.6502716 3.07036369,27.6502716 0,27.6179199 L0,2.22044605e-16 L32,2.22044605e-16 L32,28 L27.1309204,28 C26.2156935,26.5424234 25.576133,25.5160234 25.2122389,24.9208 Z M21.1470337,32 L13.5172424,32 L10.3711548,31.1884003 C12.7749665,24.412784 14.5649125,19.3717304 15.7409929,16.0652396 C15.7922805,16.0661187 15.8434805,16.0669978 15.8947682,16.0678769 C17.0101216,19.4189099 18.7608768,24.7296176 21.1470337,32 Z"/>
</svg>

<svg xmlns="http://www.w3.org/2000/svg" width="32" height="32"><path fill="#FFF" fill-rule="evenodd" d="M25.212 24.92c-2.888-4.723-5.068-9.763-6.617-15.076-.85-2.917-1.644-5.85-2.464-8.776a1.076 1.076 0 0 0-.23-.455c-.128.404-.267.804-.383 1.21-1.307 4.561-2.678 9.103-4.391 13.528-1.615 4.172-4.103 8.494-6.49 12.267-.021.032-1.567.032-4.637 0V0h32v28h-4.87a352.949 352.949 0 0 1-1.918-3.08zM21.147 32h-7.63l-3.146-.812a21751.8 21751.8 0 0 1 5.37-15.123l.154.003C17.01 19.418 18.76 24.73 21.147 32z"/></svg>
